icons/icn_medida.svg

<svg width="24" xmlns="http://www.w3.org/2000/svg" height="24" id="screenshot-db98763a-3795-80f3-8006-36a2a3fb8ba9" viewBox="0 0 24 24" xmlns:xlink="http://www.w3.org/1999/xlink" fill="none" version="1.1"><g id="shape-db98763a-3795-80f3-8006-36a2a3fb8ba9"><g class="frame-container-wrapper"><g class="frame-container-blur"><g class="frame-container-shadows"><g fill="none"><g class="fills" id="fills-db98763a-3795-80f3-8006-36a2a3fb8ba9"><rect rx="0" ry="0" x="0" y="0" width="24" height="24.000000000000455" transform="matrix(1, 0, 0, 1, 0, 0)" class="frame-background"/></g><g class="frame-children"><g id="shape-db98763a-3795-80f3-8006-36a26f0489b1" rx="0" ry="0" style="fill: rgb(0, 0, 0);"><g id="shape-db98763a-3795-80f3-8006-36a26f055be0" style="opacity: 1;"><g class="fills" id="fills-db98763a-3795-80f3-8006-36a26f055be0"><path d="M3.995410203933716,2.2812201976776123C3.854052782058716,2.2748725414276123,3.714648485183716,2.2970893383026123,3.591113328933716,2.3476264476776123C3.262011766433716,2.4822700023651123,2.993457078933716,2.8403022289276123,2.993457078933716,3.2402045726776123L2.993457078933716,18.654266357421875C2.993457078933716,19.962005615234375,4.070605278015137,21.039031982421875,5.378222465515137,21.039031982421875L19.079395294189453,21.039031982421875C19.738330841064453,21.039031982421875,20.288623809814453,20.608489990234375,20.511035919189453,20.078094482421875C20.733448028564453,19.547821044921875,20.646533966064453,18.858734130859375,20.184864044189453,18.388641357421875L7.649706840515137,5.619110584259033C7.649706840515137,5.618500232696533,7.649706840515137,5.617889881134033,7.649706840515137,5.617157459259033C7.616991996765137,5.563690662384033,7.577685356140137,5.514374256134033,7.532519340515137,5.470673084259033C7.493456840515137,5.432220935821533,7.450243949890137,5.398163318634033,7.403613090515137,5.369110584259033L4.647753715515137,2.5605170726776123C4.472704887390137,2.3821723461151123,4.231249809265137,2.2919623851776123,3.995410203933716,2.2812201976776123ZM4.491503715515137,4.539032459259033L5.932909965515137,6.007782459259033L5.473925590515137,6.466766834259033C5.332812309265137,6.607513904571533,5.253466606140137,6.798676013946533,5.253466606140137,6.998016834259033C5.253466606140137,7.197357654571533,5.332812309265137,7.388519763946533,5.473925590515137,7.529266834259033C5.766161918640137,7.818207263946533,6.236376762390137,7.818207263946533,6.528613090515137,7.529266834259033L6.983691215515137,7.078094959259033L8.770800590515137,8.898407936096191L7.001269340515137,10.665986061096191C6.859423637390137,10.806855201721191,6.779833793640137,10.998383522033691,6.779833793640137,11.198212623596191C6.779833793640137,11.398041725158691,6.859423637390137,11.589692115783691,7.001269340515137,11.730439186096191C7.142138481140137,11.872284889221191,7.333788871765137,11.951996803283691,7.533495903015137,11.951996803283691C7.733447074890137,11.951996803283691,7.924853324890137,11.872284889221191,8.065722465515137,11.730439186096191L9.823534965515137,9.970673561096191L12.196581840515137,12.386689186096191L8.796191215515137,15.759736061096191C8.653368949890137,15.899506568908691,8.572070121765137,16.090545654296875,8.570605278015137,16.290374755859375C8.569140434265137,16.490203857421875,8.647509574890137,16.682342529296875,8.788378715515137,16.824188232421875C8.928271293640137,16.966278076171875,9.118945121765137,17.046722412109375,9.318163871765137,17.047821044921875C9.517626762390137,17.048919677734375,9.709277153015137,16.970672607421875,9.850878715515137,16.830291748046875L13.249316215515137,13.459198951721191L15.345019340515137,15.595917701721191L14.471972465515137,16.468963623046875C14.330615043640137,16.609710693359375,14.251269340515137,16.800872802734375,14.251269340515137,17.000213623046875C14.251269340515137,17.199554443359375,14.330615043640137,17.390716552734375,14.471972465515137,17.531463623046875C14.612597465515137,17.672698974609375,14.803759574890137,17.752044677734375,15.003222465515137,17.752044677734375C15.202441215515137,17.752044677734375,15.393603324890137,17.672698974609375,15.534472465515137,17.531463623046875L16.395801544189453,16.664276123046875L19.114551544189453,19.435760498046875C19.154102325439453,19.475921630859375,19.141651153564453,19.475921630859375,19.129932403564453,19.504119873046875C19.118213653564453,19.532440185546875,19.135547637939453,19.533538818359375,19.079151153564453,19.533538818359375L5.377978324890137,19.533538818359375C4.880908012390137,19.533538818359375,4.491259574890137,19.151702880859375,4.491259574890137,18.654632568359375Z" style="display: inline; stroke-linecap: round; stroke-linejoin: round; fill: rgb(0, 0, 0); fill-opacity: 1;"/></g></g></g></g></g></g></g></g></g></svg>

<svg fill="none" viewBox="0 0 24 24"><g class="frame-container-wrapper"><g class="frame-container-blur"><g class="frame-container-shadows"><g class="fills"><rect width="24" height="24" class="frame-background" rx="0" ry="0"/></g><g class="frame-children"><path fill="#000" d="M3.9954 2.2812c-.1413-.0063-.2808.0159-.4043.0664-.329.1347-.5976.4927-.5976.8926v15.414c0 1.3078 1.0771 2.3848 2.3847 2.3848h13.7012c.659 0 1.2092-.4305 1.4316-.961.2224-.5302.1355-1.2193-.3261-1.6894L7.6497 5.6191v-.002a.7443.7443 0 0 0-.1172-.1464.7462.7462 0 0 0-.1289-.1016L4.6478 2.5605c-.1751-.1783-.4166-.2685-.6524-.2793Zm.4961 2.2578 1.4414 1.4688-.459.459a.7504.7504 0 0 0 0 1.0625.75.75 0 0 0 1.0547 0l.455-.4512 1.7872 1.8203-1.7695 1.7676a.7499.7499 0 0 0-.2215.5322c0 .1998.0796.3915.2215.5322a.7502.7502 0 0 0 1.0644 0l1.7578-1.7597 2.373 2.416-3.4003 3.373a.7497.7497 0 0 0-.0078 1.0645.7493.7493 0 0 0 .5298.2236.7507.7507 0 0 0 .5327-.2175l3.3984-3.3711 2.0957 2.1367-.873.873a.7496.7496 0 0 0 0 1.0626.7504.7504 0 0 0 1.0625 0l.8613-.8672 2.7188 2.7715c.0395.0401.027.0401.0153.0683-.0117.0283.0056.0294-.0507.0294H5.378c-.497 0-.8867-.3818-.8867-.8789Z" class="fills"/></g></g></g></g></svg>
